assets/svg/facebook.svg

<svg width="26" height="26" viewBox="0 0 26 26" fill="none" xmlns="http://www.w3.org/2000/svg">
<path d="M25.9914 13.0005C25.9914 19.5663 21.1259 24.9944 14.8052 25.8752C14.2141 25.9572 13.6095 26 12.9957 26C12.2872 26 11.5915 25.9435 10.914 25.8342C4.72621 24.8377 0 19.4706 0 13.0005C0 5.82069 5.81898 0 12.9966 0C20.1743 0 25.9933 5.82069 25.9933 13.0005H25.9914Z" fill="white"/>
<path d="M14.8052 10.439V13.271H18.3075L17.7529 17.0859H14.8052V25.8752C14.2142 25.9572 13.6095 26 12.9957 26C12.2873 26 11.5915 25.9435 10.914 25.8342V17.0859H7.68399V13.271H10.914V9.80591C10.914 7.65617 12.6561 5.91269 14.8061 5.91269V5.91451C14.8125 5.91451 14.8179 5.91269 14.8243 5.91269H18.3084V9.21199H16.0318C15.3552 9.21199 14.8061 9.76127 14.8061 10.4381L14.8052 10.439Z" fill="#557D32"/>
</svg>

<svg width="26" height="26" fill="none" xmlns="http://www.w3.org/2000/svg"><path d="M25.991 13c0 6.566-4.865 11.994-11.186 12.875a13.169 13.169 0 01-3.891-.04C4.726 24.837 0 19.47 0 13 0 5.82 5.819 0 12.997 0c7.177 0 12.996 5.82 12.996 13h-.002z" fill="#383D38"/><path d="M14.805 10.439v2.832h3.503l-.555 3.815h-2.948v8.79a13.166 13.166 0 01-3.891-.042v-8.748h-3.23V13.27h3.23V9.806a3.893 3.893 0 013.892-3.893v.002l.018-.002h3.484v3.299h-2.276c-.677 0-1.226.55-1.226 1.226v.001z" fill="#fff"/></svg>
